X: 1052
T: Hicazkâr Peşrev
C: Gazi Giray Han
O: Turkey
F: http://compmusic.upf.edu/node/140
N: hicazkar--pesrev--berefsan----gazi_giray_han
N: makam= hicazkar
N: form= pesrev
N: usul= berefsan = 32/8
M: 32/8
L: 1/16
K: C _1/4B _7/8e _7/8A ^f
Q: 1/4=78
%%MIDI tuningsystem comma53
f4 g8 f4  | g4 =a2 _b2 a4 b4  | =a2 g2 f2 g2 f4 g4  | \
w:   |   |   | 
f4 g8 f4  | =a4 g2 f2 e2 d2 c2 d2  | 
w:   |   | 
c4 d8 z4  | d2 e2 d2 e2 f2 g2 =a4  | \
w:   |   | 
g2 a2 g2 f2 e2 d2 c4  | B6 =a _b a2 g2 =f2 =e2  | 
w:   |   | 
d2 c2 B2 A2 G4 c4  | c6 B2 d2 e4 d2  | \
w:   |   | 
(3c2B2A2 B8 d4  | c2 d2 c2 B2 B2 A2 G4  | 
w:   |   | 
G2 A2 G2 A2 B2 c2 d4  | B2 c B A2 G2 B2 A2 G2 F2  | \
w:   |   | 
G4 (3B2A2B2 G8  | 
w:   | 
z4 d2 d2 d4 c4  | d4 e8 d4  | (3c2B2A2 B8 d4  | \
w:   |   |   | 
c2 d2 c2 B2 B2 A2 G4  | G2 A2 G2 A2 B2 c2 d4  | 
w:   |   | 
B2 c B A2 G2 B2 A2 G2 F2  | G12 (3B2A2B2  | \
w:   |   | 
G12 z4  | d6 c2 B4 c4  | d12 c4  | 
w:   |   |   | 
d2 e2 d4 e4 z4  | d2 e2 d2 e2 f2 g2 =a4  | \
w:   |   | 
g2 =a2 g2 f2 e2 d2 c4  | a2 g2 f2 g2 f4 (3a2g2a2  | 
w:   |   | 
g6 f2 g2 f2 g4  | z4 d2 e2 d4 c4  | B2 c2 B2 c2 d6 f2  | \
w:   |   |   | 
e2 d2 e2 f2 d4 z4  | 
w:   | 
d2 e2 d2 e2 f2 g2 =a4  | g2 =a2 g2 f2 e2 d2 c4  | \
w:   |   | 
d6 =a _b a2 g2 =f2 =e2  | 
w:   | 
d2 c2 B2 A2 G4 d4  | d2 c4 B2 e6 d2  | \
w:   |   | 
(3c2B2A2 B8 d4  | c2 d2 c2 B2 A2 G2 G4  | 
w:   |   | 
G2 A2 G2 A2 B2 c2 d4  | B4 A2 G2 B2 A2 G2 F2  | \
w:   |   | 
G4 (3B2A2B2 G8  | d c d e d2 c2 B A B c B2 A2  | 
w:   |   | 
G6 B2 A2 G2 A2 B2  | G2 A2 G2 A2 B4 c4  | \
w:   |   | 
B2 c2 B2 c2 d8  | f4 g8 f4  | g4 =a2 _b2 a4 b4  | 
w:   |   |   | 
=a2 g2 f2 g2 f4 g4  | f4 g8 f4  | =a4 g2 f2 e2 d2 c2 d2  | \
w:   |   |   | 
c4 d8 z4  | d2 e2 d2 e2 f2 g2 =a4  | 
w:   |   | 
g2 a2 g2 f2 e2 d2 c4  | B6 =a _b a2 g2 =f2 =e2  | \
w:   |   | 
d2 c2 B2 A2 G4 c4  | c6 B2 d2 e4 d2  | 
w:   |   | 
(3c2B2A2 B8 d4  | c2 d2 c2 B2 B2 A2 G4  | \
w:   |   | 
G2 A2 G2 A2 B2 c2 d4  | B2 c B A2 G2 B2 A2 G2 F2  | 
w:   |   | 
G4 (3B2A2B2 G8  | z4 d2 d2 d4 c4  | d4 e8 d4  | \
w:   |   |   | 
(3c2B2A2 B8 d4  | c2 d2 c2 B2 B2 A2 G4  | 
w:   |   | 
G2 A2 G2 A2 B2 c2 d4  | B2 c B A2 G2 B2 A2 G2 F2  | \
w:   |   | 
G12 (3B2A2B2  | G12 z4  | 
w:   |   | 
d6 c2 B4 c4  | d12 c4  | d2 e2 d4 e4 z4  | \
w:   |   |   | 
d2 e2 d2 e2 f2 g2 =a4  | g2 =a2 g2 f2 e2 d2 c4  | 
w:   |   | 
a2 g2 f2 g2 f4 (3a2g2a2  | g6 f2 g2 f2 g4  | \
w:   |   | 
z4 d2 e2 d4 c4  | B2 c2 B2 c2 d6 f2  | 
w:   |   | 
e2 d2 e2 f2 d4 z4  | d2 e2 d2 e2 f2 g2 =a4  | \
w:   |   | 
g2 =a2 g2 f2 e2 d2 c4  | d6 =a _b a2 g2 =f2 =e2  | 
w:   |   | 
d2 c2 B2 A2 G4 d4  | d2 c4 B2 e6 d2  | \
w:   |   | 
(3c2B2A2 B8 d4  | c2 d2 c2 B2 A2 G2 G4  | 
w:   |   | 
G2 A2 G2 A2 B2 c2 d4  | B4 A2 G2 B2 A2 G2 F2  | \
w:   |   | 
G4 (3B2A2B2 G8  | d c d e d2 c2 B A B c B2 A2  | 
w:   |   | 
G6 B2 A2 G2 A2 B2  | G2 A2 G2 A2 B4 c4  | \
w:   |   | 
d4 e4 f4 g4  | f4 g8 f4  | =a4 g2 f2 e6 d2  | 
w:   |   |   | 
g6 f2 a4 g2 f2  | e2 f2 e2 f2 g4 a4  | \
w:   |   | 
f2 g2 f2 g2 =a4 _b4  | =a g a _b a2 g2 f e f g f2 e2  | 
w:   |   | 
d6 e2 f4 g4  | g f g =a g2 f2 e2 d2 c4  | \
w:   |   | 
d6 =a _b a2 g2 =f2 =e2  | d2 c2 B2 A2 G4 d4  | 
w:   |   | 
d2 c4 B2 e6 d2  | (3c2B2A2 B8 d4  | c2 e2 d2 c2 B2 A2 G4  | \
w:   |   |   | 
G2 A2 G2 A2 B2 c2 d4  | 
w:   | 
B2 c B A2 G2 B2 A2 G2 F2  | G6 A2 B4 c4  | \
w:   |   | 
d4 e4 f4 g4  | f4 g8 f4  | g4 =a2 _b2 a4 b4  | 
w:   |   |   | 
=a2 g2 f2 g2 f4 g4  | f4 g8 f4  | =a4 g2 f2 e2 d2 c2 d2  | \
w:   |   |   | 
c4 d8 z4  | d2 e2 d2 e2 f2 g2 =a4  | 
w:   |   | 
g2 a2 g2 f2 e2 d2 c4  | B6 =a _b a2 g2 =f2 =e2  | \
w:   |   | 
d2 c2 B2 A2 G4 c4  | c6 B2 d2 e4 d2  | 
w:   |   | 
(3c2B2A2 B8 d4  | c2 d2 c2 B2 B2 A2 G4  | \
w:   |   | 
G2 A2 G2 A2 B2 c2 d4  | B2 c B A2 G2 B2 A2 G2 F2  | 
w:   |   | 
G4 (3B2A2B2 G8  | z4 d2 d2 d4 c4  | d4 e8 d4  | \
w:   |   |   | 
(3c2B2A2 B8 d4  | c2 d2 c2 B2 B2 A2 G4  | 
w:   |   | 
G2 A2 G2 A2 B2 c2 d4  | B2 c B A2 G2 B2 A2 G2 F2  | \
w:   |   | 
G12 (3B2A2B2  | G12 z4  | 
w:   |   | 
d6 c2 B4 c4  | d12 c4  | d2 e2 d4 e4 z4  | \
w:   |   |   | 
d2 e2 d2 e2 f2 g2 =a4  | g2 =a2 g2 f2 e2 d2 c4  | 
w:   |   | 
a2 g2 f2 g2 f4 (3a2g2a2  | g6 f2 g2 f2 g4  | \
w:   |   | 
z4 d2 e2 d4 c4  | B2 c2 B2 c2 d6 f2  | 
w:   |   | 
e2 d2 e2 f2 d4 z4  | d2 e2 d2 e2 f2 g2 =a4  | \
w:   |   | 
g2 =a2 g2 f2 e2 d2 c4  | d6 =a _b a2 g2 =f2 =e2  | 
w:   |   | 
d2 c2 B2 A2 G4 d4  | d2 c4 B2 e6 d2  | \
w:   |   | 
(3c2B2A2 B8 d4  | c2 d2 c2 B2 A2 G2 G4  | 
w:   |   | 
G2 A2 G2 A2 B2 c2 d4  | B4 A2 G2 B2 A2 G2 F2  | \
w:   |   | 
G4 (3B2A2B2 G8  | d c d e d2 c2 B A B c B2 A2  | 
w:   |   | 
G6 B2 A2 G2 A2 B2  | G2 A2 G2 A2 B4 c4  | \
w:   |   | 
d4 e4 f4 g4  | f4 g8 f4  | =a4 g2 f2 e6 d2  | 
w:   |   |   | 
g6 f2 a4 g2 f2  | e2 f2 e2 f2 g4 a4  | \
w:   |   | 
f2 g2 f2 g2 =a4 _b4  | =a g a _b a2 g2 f e f g f2 e2  | 
w:   |   | 
d6 e2 f4 g4  | g f g =a g2 f2 e2 d2 c4  | \
w:   |   | 
d6 =a _b a2 g2 =f2 =e2  | d2 c2 B2 A2 G4 d4  | 
w:   |   | 
d2 c4 B2 e6 d2  | (3c2B2A2 B8 d4  | c2 e2 d2 c2 B2 A2 G4  | \
w:   |   |   | 
G2 A2 G2 A2 B2 c2 d4  | 
w:   | 
B2 c B A2 G2 B2 A2 G2 F2  | G6 A2 B4 c4  | \
w:   |   | 
d4 e4 f4 g4  | G12 (3B2A2B2  | 
w:   |   | 
G12 z4  | G8 D8  | G2 F2 G2 A2 G8  | d c d e d2 c2 B A B c B2 A2  | 
w:   |   |   |   | 
G6 B2 A2 G2 A2 B2  | G2 A2 G2 A2 B4 c4  | \
w:   |   | 
B2 c2 B2 c2 d6 e2  | e2 d2 c2 d2 c4 d4  | 
w:   |   | 
d2 z2 (3e2d2e2 d8  | G8 D8  | G2 F2 G2 A2 G8  | \
w:   |   |   | 
d2 d2 d4 B2 B2 B4  | G6 B2 A2 G2 A2 B2  | 
w:   |   | 
G2 A2 G2 A2 B4 c4  | B2 c2 B2 c2 d6 e2  | \
w:   |   | 
e2 d2 c2 d2 c4 d4  | d6 e2 d8  | 
w:   |   | 
z4 d2 d2 d4 c4  | d4 e8 d4  | (3c2B2A2 B8 d4  | \
w:   |   |   | 
c2 d2 c2 B2 B2 A2 G4  | d2 d2 d4 B2 B2 B4  | 
w:   |   | 
G6 B2 A2 G2 A2 B2  | G6 A2 B4 c4  | B2 c2 B2 c2 d8  | \
w:   |   |   | 
z4 d2 d2 d4 c4  | d4 e8 d4  | 
w:   |   | 
(3c2B2A2 B8 d4  | c2 d2 c2 B2 B2 A2 G4  | \
w:   |   | 
G2 A2 G2 A2 B2 c2 d4  | c2 B2 A2 G2 B2 A2 G2 F2  | 
w:   |   | 
G12 (3B2A2B2  | G12 z4  | |


